img/tiktok.svg

<svg width="48" height="48" viewBox="0 0 48 48" fill="none" xmlns="http://www.w3.org/2000/svg">
<path d="M0 24C0 10.7452 10.7452 0 24 0C37.2548 0 48 10.7452 48 24C48 37.2548 37.2548 48 24 48C10.7452 48 0 37.2548 0 24Z" fill="#F6F6F8"/>
<path d="M34.5151 18.0181C33.1454 18.0181 31.8816 17.5643 30.8668 16.7988C29.7029 15.9213 28.8666 14.6342 28.5713 13.1506C28.4982 12.784 28.4588 12.4057 28.4551 12.0181H24.5424V22.7093L24.5377 28.5654C24.5377 30.131 23.5182 31.4585 22.1049 31.9254C21.6948 32.0609 21.2518 32.1251 20.7905 32.0998C20.2018 32.0674 19.6501 31.8898 19.1705 31.6029C18.1501 30.9926 17.4582 29.8854 17.4395 28.6188C17.4099 26.6393 19.0102 25.0254 20.9884 25.0254C21.3788 25.0254 21.7538 25.0891 22.1049 25.2049V22.2827V21.2323C21.7346 21.1774 21.3577 21.1488 20.9766 21.1488C18.8115 21.1488 16.7865 22.0488 15.339 23.6702C14.2449 24.8956 13.5887 26.4588 13.4874 28.098C13.3548 30.2515 14.1427 32.2985 15.6709 33.8088C15.8954 34.0305 16.1312 34.2363 16.3777 34.4262C17.6879 35.4345 19.2896 35.981 20.9766 35.981C21.3577 35.981 21.7346 35.9529 22.1049 35.898C23.6809 35.6646 25.1349 34.9432 26.2824 33.8088C27.6924 32.4152 28.4715 30.5651 28.4799 28.5959L28.4598 19.8509C29.1324 20.3698 29.8679 20.7992 30.6573 21.1324C31.8849 21.6504 33.1866 21.9129 34.5263 21.9124V19.0713V18.0171C34.5273 18.0181 34.516 18.0181 34.5151 18.0181Z" fill="black"/>
</svg>

<svg width="48" height="48" fill="none" xmlns="http://www.w3.org/2000/svg"><path d="M0 24C0 10.745 10.745 0 24 0s24 10.745 24 24-10.745 24-24 24S0 37.255 0 24z" fill="#F6F6F8"/><path d="M34.515 18.018a6.037 6.037 0 01-3.648-1.22 6.052 6.052 0 01-2.412-4.78h-3.913V22.71l-.004 5.856A3.541 3.541 0 0120.79 32.1a3.528 3.528 0 01-1.62-.497 3.541 3.541 0 01-1.732-2.984 3.544 3.544 0 014.666-3.414v-3.972a7.692 7.692 0 00-1.128-.084c-2.166 0-4.19.9-5.638 2.521a7.34 7.34 0 00-1.852 4.428 7.33 7.33 0 002.184 5.71 7.503 7.503 0 005.306 2.172 7.477 7.477 0 005.306-2.172 7.325 7.325 0 002.197-5.212l-.02-8.745a9.889 9.889 0 006.066 2.062v-3.896c.001.001-.01.001-.01.001z" fill="#000"/></svg>
